!!!OTL: Stete Liebe.
!!!ARE: Europa, Mitteleuropa, Deutschland
!!!SCT: A0204A
!!!TXL: @@GMH
!!!YEM: Copyright 1995, estate of Helmut Schaffrath.
**kern	**text
*M3/2	*
*met(3)	*
*clefC4	*
*k[b-]	*
*g:dor	*
=1	=1
!LO:TX:a:t=dor.	!
2ryy	.
2ryy	.
{2G	Wann
=2	=2
1B-	ich
2c	des
=3	=3
1d	mor-
2f	-gens
=4	=4
2e	frü
1d	auf-
=5	=5
1c}	-ſte,
{2c	vnd
=6	=6
1d	in
2d	meins
=7	=7
*lig	*
2B-	va-
2G	.
*Xlig	*
2d	-ters
=8	=8
*lig	*
2.c	ſtüb-
8B-L	.
8AJ	.
*Xlig	*
2G	-lein
=9	=9
1F}	ge,
{2F	ſo
=10	=10
1B-	kumpt
2c	mein
=11	=11
*lig	*
2d	lieb
2B-	.
*Xlig	*
2d	vnd
=12	=12
*lig	*
2.c	beit
4B-	.
*Xlig	*
2A}	mir
=13	=13
{2G	ein
2c	gu-
2B-	-ten
=14	=14
4A/	mor-
4G	.
1A	.
=15	=15
1.G/ll}	-gen.
==	==
!!!GTL: Liebeslieder
!!!AGN: Romanze, Ballade, Lied
!! J. Ott 1534 No. 67 und 68, J. Ott III 1544 No. 14. Tonsatz
!!    von Heinr. Isaak, vermuthlich auch von ihm die Melodie erfunden
!!    denn als Volksweise waere sie zu gekuenstelt.
!!!ONB: ESAC (Essen Associative Code) Database: ALTDEU
!!!AMT: simple triple
!!!AIN: vox
!!!EED: Helmut Schaffrath
!!!EEV: 1.0
!!!RDF**kern: l = terminal long
!!!AMD: Dorian
!!!URL-scan: https://rosdok.uni-rostock.de/mcrviewer/recordIdentifier/rosdok_ppn738218359/iview2/phys_0360.iview2?x=-1816.6124862433817&y=170.55783057049848&scale=0.262872707487861&rotation=0&layout=singlePageLayout
!!!ENC: Anna Maria Matuszewska
!!!EEV: 2024/08/03
*-	*-
